scalable/apps/gnome-sticky-notes-applet.svg

<?xml version="1.0" encoding="UTF-8" standalone="no"?>
<!-- Generator: Adobe Illustrator 19.0.0, SVG Export Plug-In . SVG Version: 6.00 Build 0)  -->

<svg
   xmlns:dc="http://purl.org/dc/elements/1.1/"
   xmlns:cc="http://creativecommons.org/ns#"
   xmlns:rdf="http://www.w3.org/1999/02/22-rdf-syntax-ns#"
   xmlns:svg="http://www.w3.org/2000/svg"
   xmlns="http://www.w3.org/2000/svg"
   xmlns:xlink="http://www.w3.org/1999/xlink"
   xmlns:sodipodi="http://sodipodi.sourceforge.net/DTD/sodipodi-0.dtd"
   xmlns:inkscape="http://www.inkscape.org/namespaces/inkscape"
   version="1.1"
   id="Capa_1"
   x="0px"
   y="0px"
   viewBox="0 0 48 48"
   xml:space="preserve"
   sodipodi:docname="gnome-sticky-notes-applet.svg"
   width="48"
   height="48"
   inkscape:version="0.92.3 (2405546, 2018-03-11)"><metadata
   id="metadata41"><rdf:RDF><cc:Work
       rdf:about=""><dc:format>image/svg+xml</dc:format><dc:type
         rdf:resource="http://purl.org/dc/dcmitype/StillImage" /><dc:title /></cc:Work></rdf:RDF></metadata><defs
   id="defs39"><linearGradient
     id="linearGradient1221"><stop
       style="stop-color:#a0892c;stop-opacity:1"
       offset="0"
       id="stop1217" /><stop
       style="stop-color:#ffdd55;stop-opacity:1"
       offset="1"
       id="stop1219" /></linearGradient><linearGradient
     id="linearGradient1215"><stop
       style="stop-color:#a0892c;stop-opacity:1"
       offset="0"
       id="stop1211" /><stop
       style="stop-color:#ffdd55;stop-opacity:1"
       offset="1"
       id="stop1213" /></linearGradient><linearGradient
     inkscape:collect="always"
     id="linearGradient1403"><stop
       style="stop-color:#000000;stop-opacity:1;"
       offset="0"
       id="stop1399" /><stop
       style="stop-color:#000000;stop-opacity:0;"
       offset="1"
       id="stop1401" /></linearGradient><linearGradient
     id="linearGradient1379"><stop
       id="stop1369"
       offset="0"
       style="stop-color:#89a02c;stop-opacity:1" /><stop
       style="stop-color:#cdde87;stop-opacity:1"
       offset="0.25"
       id="stop1371" /><stop
       id="stop1373"
       offset="0.45480227"
       style="stop-color:#abc837;stop-opacity:1" /><stop
       style="stop-color:#bcd35f;stop-opacity:1"
       offset="0.5"
       id="stop1375" /><stop
       id="stop1381"
       offset="0.75451207"
       style="stop-color:#89a02c;stop-opacity:1" /><stop
       id="stop1377"
       offset="1"
       style="stop-color:#dde9af;stop-opacity:1" /></linearGradient><linearGradient
     id="linearGradient2882"><stop
       id="stop2908"
       offset="0"
       style="stop-color:#fce94f;stop-opacity:1;" /><stop
       style="stop-color:#edd400;stop-opacity:1"
       offset="1"
       id="stop2886" /></linearGradient><linearGradient
     id="linearGradient2807"><stop
       id="stop2809"
       offset="0"
       style="stop-color:#c8ab37;stop-opacity:1" /><stop
       id="stop2811"
       offset="1"
       style="stop-color:#ffdd55;stop-opacity:1" /></linearGradient><radialGradient
     id="XMLID_2_"
     cx="11.026738"
     cy="7.9994998"
     r="156.98399"
     gradientUnits="userSpaceOnUse"
     fx="11.026738"
     fy="7.9994998"><stop
       offset="0.0765"
       style="stop-color:#ffce05;stop-opacity:1;"
       id="stop12" /><stop
       offset="0.18870001"
       style="stop-color:#f9d940;stop-opacity:1;"
       id="stop14" /><stop
       offset="0.3467"
       style="stop-color:#FDE446"
       id="stop16" /><stop
       offset="0.4294"
       style="stop-color:#FFEB55"
       id="stop18" /><stop
       offset="0.6882"
       style="stop-color:#FFEB55"
       id="stop20" /><stop
       offset="0.7281"
       style="stop-color:#FEE951"
       id="stop22" /><stop
       offset="0.7641"
       style="stop-color:#FDE446"
       id="stop24" /><stop
       offset="0.7987"
       style="stop-color:#FADB34"
       id="stop26" /><stop
       offset="0.8322"
       style="stop-color:#F7CF1A"
       id="stop28" /><stop
       offset="0.8588"
       style="stop-color:#F3C300"
       id="stop30" /><stop
       offset="0.9208"
       style="stop-color:#FBD400"
       id="stop32" /><stop
       offset="0.9706"
       style="stop-color:#FFDD00"
       id="stop34" /></radialGradient><linearGradient
     id="linearGradient2221"><stop
       style="stop-color:#ffffff;stop-opacity:1;"
       offset="0"
       id="stop2223" /><stop
       id="stop2233"
       offset="0.25"
       style="stop-color:#ffffff;stop-opacity:0.44927537;" /><stop
       style="stop-color:#ffffff;stop-opacity:0.69803922;"
       offset="0.45480227"
       id="stop2235" /><stop
       id="stop2231"
       offset="0.5"
       style="stop-color:#ffffff;stop-opacity:0.942029;" /><stop
       style="stop-color:#ffffff;stop-opacity:0;"
       offset="1"
       id="stop2225" /></linearGradient><radialGradient
     id="radialGradient1104"
     cx="11.026738"
     cy="7.9994998"
     r="156.98399"
     gradientUnits="userSpaceOnUse"
     fx="11.026738"
     fy="7.9994998"><stop
       offset="0.0765"
       style="stop-color:#ffce05;stop-opacity:1;"
       id="stop1080" /><stop
       offset="0.18870001"
       style="stop-color:#f9d940;stop-opacity:1;"
       id="stop1082" /><stop
       offset="0.3467"
       style="stop-color:#FDE446"
       id="stop1084" /><stop
       offset="0.4294"
       style="stop-color:#FFEB55"
       id="stop1086" /><stop
       offset="0.6882"
       style="stop-color:#FFEB55"
       id="stop1088" /><stop
       offset="0.7281"
       style="stop-color:#FEE951"
       id="stop1090" /><stop
       offset="0.7641"
       style="stop-color:#FDE446"
       id="stop1092" /><stop
       offset="0.7987"
       style="stop-color:#FADB34"
       id="stop1094" /><stop
       offset="0.8322"
       style="stop-color:#F7CF1A"
       id="stop1096" /><stop
       offset="0.8588"
       style="stop-color:#F3C300"
       id="stop1098" /><stop
       offset="0.9208"
       style="stop-color:#FBD400"
       id="stop1100" /><stop
       offset="0.9706"
       style="stop-color:#FFDD00"
       id="stop1102" /></radialGradient><radialGradient
     id="radialGradient1144"
     cx="11.026738"
     cy="7.9994998"
     r="156.98399"
     gradientUnits="userSpaceOnUse"
     fx="11.026738"
     fy="7.9994998"><stop
       offset="0.0765"
       style="stop-color:#ffce05;stop-opacity:1;"
       id="stop1120" /><stop
       offset="0.18870001"
       style="stop-color:#f9d940;stop-opacity:1;"
       id="stop1122" /><stop
       offset="0.3467"
       style="stop-color:#FDE446"
       id="stop1124" /><stop
       offset="0.4294"
       style="stop-color:#FFEB55"
       id="stop1126" /><stop
       offset="0.6882"
       style="stop-color:#FFEB55"
       id="stop1128" /><stop
       offset="0.7281"
       style="stop-color:#FEE951"
       id="stop1130" /><stop
       offset="0.7641"
       style="stop-color:#FDE446"
       id="stop1132" /><stop
       offset="0.7987"
       style="stop-color:#FADB34"
       id="stop1134" /><stop
       offset="0.8322"
       style="stop-color:#F7CF1A"
       id="stop1136" /><stop
       offset="0.8588"
       style="stop-color:#F3C300"
       id="stop1138" /><stop
       offset="0.9208"
       style="stop-color:#FBD400"
       id="stop1140" /><stop
       offset="0.9706"
       style="stop-color:#FFDD00"
       id="stop1142" /></radialGradient><radialGradient
     id="XMLID_2_-3"
     cx="11.026738"
     cy="7.9994998"
     r="156.98399"
     gradientUnits="userSpaceOnUse"
     fx="11.026738"
     fy="7.9994998"><stop
       offset="0.0765"
       style="stop-color:#ffce05;stop-opacity:1;"
       id="stop12-6" /><stop
       offset="0.18870001"
       style="stop-color:#f9d940;stop-opacity:1;"
       id="stop14-7" /><stop
       offset="0.3467"
       style="stop-color:#FDE446"
       id="stop16-5" /><stop
       offset="0.4294"
       style="stop-color:#FFEB55"
       id="stop18-3" /><stop
       offset="0.6882"
       style="stop-color:#FFEB55"
       id="stop20-5" /><stop
       offset="0.7281"
       style="stop-color:#FEE951"
       id="stop22-6" /><stop
       offset="0.7641"
       style="stop-color:#FDE446"
       id="stop24-2" /><stop
       offset="0.7987"
       style="stop-color:#FADB34"
       id="stop26-9" /><stop
       offset="0.8322"
       style="stop-color:#F7CF1A"
       id="stop28-1" /><stop
       offset="0.8588"
       style="stop-color:#F3C300"
       id="stop30-2" /><stop
       offset="0.9208"
       style="stop-color:#FBD400"
       id="stop32-7" /><stop
       offset="0.9706"
       style="stop-color:#FFDD00"
       id="stop34-0" /></radialGradient><radialGradient
     id="radialGradient1070"
     cx="11.026738"
     cy="7.9994998"
     r="156.98399"
     gradientUnits="userSpaceOnUse"
     fx="11.026738"
     fy="7.9994998"><stop
       offset="0.0765"
       style="stop-color:#ffce05;stop-opacity:1;"
       id="stop1046" /><stop
       offset="0.18870001"
       style="stop-color:#f9d940;stop-opacity:1;"
       id="stop1048" /><stop
       offset="0.3467"
       style="stop-color:#FDE446"
       id="stop1050" /><stop
       offset="0.4294"
       style="stop-color:#FFEB55"
       id="stop1052" /><stop
       offset="0.6882"
       style="stop-color:#FFEB55"
       id="stop1054" /><stop
       offset="0.7281"
       style="stop-color:#FEE951"
       id="stop1056" /><stop
       offset="0.7641"
       style="stop-color:#FDE446"
       id="stop1058" /><stop
       offset="0.7987"
       style="stop-color:#FADB34"
       id="stop1060" /><stop
       offset="0.8322"
       style="stop-color:#F7CF1A"
       id="stop1062" /><stop
       offset="0.8588"
       style="stop-color:#F3C300"
       id="stop1064" /><stop
       offset="0.9208"
       style="stop-color:#FBD400"
       id="stop1066" /><stop
       offset="0.9706"
       style="stop-color:#FFDD00"
       id="stop1068" /></radialGradient><radialGradient
     id="radialGradient1110"
     cx="11.026738"
     cy="7.9994998"
     r="156.98399"
     gradientUnits="userSpaceOnUse"
     fx="11.026738"
     fy="7.9994998"><stop
       offset="0.0765"
       style="stop-color:#ffce05;stop-opacity:1;"
       id="stop1086-2" /><stop
       offset="0.18870001"
       style="stop-color:#f9d940;stop-opacity:1;"
       id="stop1088-6" /><stop
       offset="0.3467"
       style="stop-color:#FDE446"
       id="stop1090-1" /><stop
       offset="0.4294"
       style="stop-color:#FFEB55"
       id="stop1092-8" /><stop
       offset="0.6882"
       style="stop-color:#FFEB55"
       id="stop1094-7" /><stop
       offset="0.7281"
       style="stop-color:#FEE951"
       id="stop1096-9" /><stop
       offset="0.7641"
       style="stop-color:#FDE446"
       id="stop1098-2" /><stop
       offset="0.7987"
       style="stop-color:#FADB34"
       id="stop1100-0" /><stop
       offset="0.8322"
       style="stop-color:#F7CF1A"
       id="stop1102-2" /><stop
       offset="0.8588"
       style="stop-color:#F3C300"
       id="stop1104" /><stop
       offset="0.9208"
       style="stop-color:#FBD400"
       id="stop1106" /><stop
       offset="0.9706"
       style="stop-color:#FFDD00"
       id="stop1108" /></radialGradient><linearGradient
     inkscape:collect="always"
     xlink:href="#linearGradient1403"
     id="linearGradient1442"
     gradientUnits="userSpaceOnUse"
     x1="11.316741"
     y1="10.714005"
     x2="45.849022"
     y2="41.114006" /><linearGradient
     inkscape:collect="always"
     xlink:href="#linearGradient2807"
     id="linearGradient1182"
     x1="22.390694"
     y1="14.833939"
     x2="22.315676"
     y2="32.837414"
     gradientUnits="userSpaceOnUse" /><linearGradient
     inkscape:collect="always"
     xlink:href="#linearGradient2807"
     id="linearGradient1190"
     x1="25.839327"
     y1="19.470255"
     x2="41.303886"
     y2="20.787901"
     gradientUnits="userSpaceOnUse" /><linearGradient
     inkscape:collect="always"
     xlink:href="#linearGradient2807"
     id="linearGradient1223"
     gradientUnits="userSpaceOnUse"
     x1="17.839327"
     y1="18.672167"
     x2="7.8288646"
     y2="11.264194" /></defs><sodipodi:namedview
   pagecolor="#ffffff"
   bordercolor="#666666"
   borderopacity="1"
   objecttolerance="10"
   gridtolerance="10"
   guidetolerance="10"
   inkscape:pageopacity="0"
   inkscape:pageshadow="2"
   inkscape:window-width="1366"
   inkscape:window-height="719"
   id="namedview37"
   showgrid="false"
   showguides="true"
   inkscape:guide-bbox="true"
   inkscape:zoom="3.7565048"
   inkscape:cx="24"
   inkscape:cy="24"
   inkscape:window-x="0"
   inkscape:window-y="25"
   inkscape:window-maximized="1"
   inkscape:current-layer="Capa_1" />


<g
   id="g6"
   transform="translate(0,-464)">
</g>
<g
   id="g8"
   transform="translate(0,-464)">
</g>
<g
   id="g10"
   transform="translate(0,-464)">
</g>
<g
   id="g12"
   transform="translate(0,-464)">
</g>
<g
   id="g14"
   transform="translate(0,-464)">
</g>
<g
   id="g16"
   transform="translate(0,-464)">
</g>
<g
   id="g18"
   transform="translate(0,-464)">
</g>
<g
   id="g20"
   transform="translate(0,-464)">
</g>
<g
   id="g22"
   transform="translate(0,-464)">
</g>
<g
   id="g24"
   transform="translate(0,-464)">
</g>
<g
   id="g26"
   transform="translate(0,-464)">
</g>
<g
   id="g28"
   transform="translate(0,-464)">
</g>
<g
   id="g30"
   transform="translate(0,-464)">
</g>
<g
   id="g32"
   transform="translate(0,-464)">
</g>
<g
   id="g34"
   transform="translate(0,-464)">
</g>
<g
   id="g964"><path
     id="path1014"
     d="m 24.000976,0.3457035 c -5.833461,0 -10.522198,1.1203776 -13.935546,3.3320313 -4.1011933,2.6574037 -6.2695315,6.9015122 -6.2695315,12.2714832 0,7.226706 5.8062658,16.88549 7.5859375,19.673828 2.031747,3.183082 4.250107,6.079783 6.246093,8.15625 2.542362,2.644284 4.56815,3.875 6.373047,3.875 1.804991,0 3.829009,-1.230625 6.371093,-3.875 1.995894,-2.076376 4.214349,-4.973077 6.246094,-8.15625 C 38.397835,32.8348 44.204101,23.175924 44.204101,15.949219 44.204193,10.57934 42.037899,6.3352307 37.936523,3.6777348 34.523359,1.4660811 29.834346,0.3457035 24.000976,0.3457035 Z"
     style="fill:#71c837;fill-opacity:1;stroke-width:0.0924025"
     inkscape:connector-curvature="0" /><path
     inkscape:connector-curvature="0"
     id="path1397"
     d="m 26.824219,46.880859 c 0.03079,-0.01825 0.05499,-0.0085 0.08594,-0.02734 1.049389,-0.638204 2.189895,-1.607501 3.460938,-2.929688 1.995894,-2.076377 4.214348,-4.973078 6.246094,-8.15625 0.889835,-1.394123 2.786912,-4.505287 4.460932,-8.171875 0.83702,-1.833294 1.61927,-3.806143 2.19141,-5.771484 0.19811,-0.680513 0.18071,-1.311493 0.32227,-1.984375 L 33.558594,9.8066406 30.439453,13.701172 25.994141,9.2558594 8.056641,21.142578 16.75,29.837891 14.767578,34.824219 Z"
     style="opacity:0.5;fill:url(#linearGradient1442);fill-opacity:1;stroke:none;stroke-width:1px;stroke-linecap:butt;stroke-linejoin:miter;stroke-opacity:1" /><path
     inkscape:connector-curvature="0"
     sodipodi:nodetypes="ccccccc"
     id="path2117"
     d="M 23.473317,20.62036 22.503911,23.80212 19.014708,23.574855 8.055721,21.142441 11.400249,6.0674448 25.99357,9.255484 Z"
     style="fill:url(#linearGradient1223);fill-opacity:1.0;stroke-width:0.17231663" /><rect
     transform="matrix(0.97624204,0.2166829,-0.21649857,0.97628293,0,0)"
     y="3.4491544"
     x="12.412736"
     height="2.438216"
     width="14.922364"
     id="rect2119"
     style="opacity:0.86885244;fill:#897522;fill-opacity:1;fill-rule:nonzero;stroke:none;stroke-width:0.17231663;stroke-linecap:butt;stroke-linejoin:miter;stroke-miterlimit:4;stroke-dasharray:none;stroke-dashoffset:4;stroke-opacity:1" /><path
     inkscape:connector-curvature="0"
     sodipodi:nodetypes="ccccccc"
     id="polygon36"
     d="M 38.086581,20.531179 39.139184,23.686394 36.163192,25.52205 25.820705,29.886529 19.815797,15.660401 33.558608,9.8069219 Z"
     style="fill:url(#linearGradient1190);fill-opacity:1.0;stroke-width:0.17231658" /><rect
     transform="matrix(0.9213245,-0.3887945,0.38896863,0.921251,0,0)"
     y="22.128683"
     x="12.133194"
     height="2.4382174"
     width="14.922346"
     id="rect1346"
     style="opacity:0.86885244;fill:#897522;fill-opacity:1;fill-rule:nonzero;stroke:none;stroke-width:0.17231658;stroke-linecap:butt;stroke-linejoin:miter;stroke-miterlimit:4;stroke-dasharray:none;stroke-dashoffset:4;stroke-opacity:1" /><path
     inkscape:connector-curvature="0"
     style="fill:url(#linearGradient1182);fill-opacity:1;stroke-width:0.20073345"
     d="m 32.181927,30.389736 -0.310688,3.862205 -4.027221,0.610412 -13.076853,-0.03854 0.05131,-17.987961 17.400824,-0.0068 z"
     id="path2099-5"
     sodipodi:nodetypes="ccccccc" /><rect
     style="opacity:0.86885244;fill:#786721;fill-opacity:1;fill-rule:nonzero;stroke:none;stroke-width:0.20073345;stroke-linecap:butt;stroke-linejoin:miter;stroke-miterlimit:4;stroke-dasharray:none;stroke-dashoffset:4;stroke-opacity:1"
     id="rect2101"
     width="17.383207"
     height="2.8403056"
     x="14.829026"
     y="16.787565"
     transform="matrix(0.99999566,0.00294708,-0.00275603,0.9999962,0,0)" /><path
     inkscape:connector-curvature="0"
     id="path848-6"
     d="m 24.000977,0.3457035 c -5.833461,0 -10.522199,1.1203783 -13.935547,3.3320313 -4.101193,2.6574041 -6.269532,6.9015122 -6.269532,12.2714832 0,7.226706 5.806267,16.88549 7.585938,19.673828 2.031747,3.183082 4.250108,6.079783 6.246094,8.15625 2.542362,2.644284 4.56815,3.875 6.373047,3.875 1.804991,0 3.829009,-1.230625 6.371093,-3.875 1.995894,-2.076376 4.214349,-4.973077 6.246094,-8.15625 C 38.397836,32.8348 44.204102,23.175924 44.204102,15.949219 44.204192,10.57934 42.037896,6.3352303 37.936524,3.6777348 34.523359,1.4660808 29.834347,0.3457035 24.000977,0.3457035 Z m 0,0.14453126 c 2.112445,0.084873 4.119293,0.27168527 5.875,0.69140624 1.164035,0.2782756 2.252955,0.6269196 3.263671,1.0429688 1.010719,0.4160492 1.943584,0.9002115 2.796876,1.453125 1.025342,0.6643739 1.929141,1.4277032 2.708984,2.2832031 0.77985,0.8554999 1.435771,1.803713 1.96289,2.8359375 0.527121,1.0322245 0.9262,2.1492026 1.19336,3.3437496 0.26716,1.194547 0.402364,2.466124 0.402344,3.808593 0,1.806677 -0.363407,3.765127 -0.935547,5.730469 -0.57215,1.965342 -1.352443,3.93819 -2.189453,5.771484 -1.674031,3.666589 -3.571102,6.777752 -4.460938,8.171875 -2.031745,3.183173 -4.2502,6.079875 -6.246094,8.15625 -1.271042,1.322188 -2.413501,2.291486 -3.46289,2.929688 -0.319034,0.194026 -0.618451,0.306539 -0.910156,0.390625 -0.291517,-0.08404 -0.58956,-0.196919 -0.908204,-0.390625 -1.049854,-0.638215 -2.191709,-1.607546 -3.46289,-2.929688 -1.995986,-2.076467 -4.214347,-4.973168 -6.246094,-8.15625 C 12.492,34.228877 10.594924,31.117748 8.920898,27.451171 8.083886,25.617883 7.30359,23.645021 6.731445,21.679687 6.159301,19.714353 5.795899,17.755895 5.795898,15.949218 c 0,-1.342492 0.134981,-2.614034 0.402344,-3.808593 C 6.465605,10.946066 6.866188,9.8291 7.393555,8.7968754 7.920922,7.7646508 8.576433,6.8164263 9.356445,5.9609379 10.136457,5.1054495 11.040131,4.3420857 12.06543,3.6777348 12.918767,3.1248214 13.851586,2.640659 14.862305,2.2246098 15.873024,1.8085606 16.961959,1.4599166 18.125977,1.181641 c 1.755679,-0.41972097 3.762539,-0.60653322 5.875,-0.69140624 z"
     style="opacity:0.25;fill:#000000;stroke-width:0.0924025" /></g></svg>

<svg xmlns="http://www.w3.org/2000/svg" xmlns:xlink="http://www.w3.org/1999/xlink" width="48" height="48"><defs><linearGradient id="a"><stop offset="0"/><stop offset="1" stop-opacity="0"/></linearGradient><linearGradient id="b"><stop offset="0" stop-color="#c8ab37"/><stop offset="1" stop-color="#fd5"/></linearGradient><linearGradient xlink:href="#a" id="c" gradientUnits="userSpaceOnUse" x1="11.32" y1="10.71" x2="45.85" y2="41.11"/><linearGradient xlink:href="#b" id="f" x1="22.39" y1="14.83" x2="22.32" y2="32.84" gradientUnits="userSpaceOnUse"/><linearGradient xlink:href="#b" id="e" x1="25.84" y1="19.47" x2="41.3" y2="20.79" gradientUnits="userSpaceOnUse"/><linearGradient xlink:href="#b" id="d" gradientUnits="userSpaceOnUse" x1="17.84" y1="18.67" x2="7.83" y2="11.26"/></defs><path d="M24 .35c-5.83 0-10.52 1.12-13.93 3.33-4.1 2.66-6.27 6.9-6.27 12.27 0 7.23 5.8 16.88 7.58 19.67a54.48 54.48 0 0 0 6.25 8.16c2.54 2.64 4.57 3.87 6.37 3.87 1.8 0 3.83-1.23 6.37-3.87 2-2.08 4.22-4.97 6.25-8.16 1.78-2.79 7.58-12.44 7.58-19.67 0-5.37-2.16-9.61-6.26-12.27C34.52 1.47 29.84.35 24 .35z" fill="#71c837"/><path d="M26.82 46.88c.04-.02.06 0 .09-.03 1.05-.63 2.19-1.6 3.46-2.93 2-2.07 4.22-4.97 6.25-8.15.89-1.4 2.78-4.5 4.46-8.17a43.2 43.2 0 0 0 2.19-5.78c.2-.68.18-1.3.32-1.98L33.56 9.81l-3.12 3.9-4.45-4.45L8.06 21.14l8.69 8.7-1.98 4.98z" opacity=".5" fill="url(#c)"/><path d="M23.47 20.62l-.97 3.18-3.49-.23-10.95-2.43L11.4 6.07 26 9.26z" fill="url(#d)"/><path opacity=".87" fill="#897522" d="M11.37 6.06l14.56 3.23-.52 2.38-14.57-3.23z"/><path d="M38.09 20.53l1.05 3.16-2.98 1.83-10.34 4.37-6-14.23 13.74-5.85z" fill="url(#e)"/><path opacity=".87" fill="#897522" d="M19.78 15.67l13.75-5.8.95 2.25-13.75 5.8z"/><path d="M32.18 30.39l-.3 3.86-4.04.61-13.07-.04.05-17.98 17.4-.01z" fill="url(#f)"/><path opacity=".87" fill="#786721" d="M14.78 16.83l17.38.05v2.84l-17.38-.05z"/><path d="M24 .35c-5.83 0-10.52 1.12-13.93 3.33-4.1 2.66-6.27 6.9-6.27 12.27 0 7.23 5.8 16.88 7.58 19.67a54.48 54.48 0 0 0 6.25 8.16c2.54 2.64 4.57 3.87 6.37 3.87 1.8 0 3.83-1.23 6.37-3.87 2-2.08 4.22-4.97 6.25-8.16 1.78-2.79 7.58-12.44 7.58-19.67 0-5.37-2.16-9.61-6.26-12.27C34.52 1.47 29.84.35 24 .35zm0 .14c2.11.09 4.12.27 5.88.7 1.16.27 2.25.62 3.26 1.03 1.01.42 1.94.9 2.8 1.46A12.92 12.92 0 0 1 40.6 8.8c.53 1.03.92 2.15 1.2 3.34.26 1.2.4 2.47.4 3.8 0 1.82-.37 3.77-.94 5.74a43.19 43.19 0 0 1-2.2 5.77 69.59 69.59 0 0 1-4.45 8.17 54.47 54.47 0 0 1-6.25 8.16 17.98 17.98 0 0 1-3.46 2.93c-.32.2-.62.3-.91.39-.3-.08-.6-.2-.9-.4-1.06-.63-2.2-1.6-3.47-2.92-2-2.08-4.22-4.97-6.25-8.16a69.6 69.6 0 0 1-4.46-8.17 43.19 43.19 0 0 1-2.19-5.77 20.93 20.93 0 0 1-.93-5.73c0-1.34.13-2.61.4-3.8.27-1.2.67-2.32 1.2-3.35a12.92 12.92 0 0 1 4.67-5.12 17.1 17.1 0 0 1 2.8-1.46c1-.41 2.1-.76 3.26-1.04C19.88.76 21.89.58 24 .5z" opacity=".25"/></svg>
